X:102
T:Hardiman The Fiddler
R: slip jig
M: 9/8
L: 1/8
K: Ador
|: A2G FDE F2G | A3 AGA cAG | A2G FDE F2G | Add ded cAG :|
| Add d2e f3 | Add ded cAG | Add d2e f2g | agf gfe dcA |
| Add d2e f3 | Add ded cAG | dcA d2e f2g | agf gfe dcA |

